common/svg/plan-enterprise-icon.svg

<svg fill="none" height="20" viewBox="0 0 20 20" width="20" xmlns="http://www.w3.org/2000/svg"><path clip-rule="evenodd" d="m10.9324 1.83094c-.4171-.71306-1.4477-.71306-1.86477 0l-8.918229 15.24756c-.421165.7201.098167 1.6255.932359 1.6255h17.83644c.8342 0 1.3536-.9054.9324-1.6255zm5.632 14.44276-1.2253-2.0949h-10.67816l-1.22532 2.0949zm-3.458-5.9121 1.1902 2.035h-8.59326l1.19026-2.035zm-1.0424-1.78226-2.064-3.52882-2.06399 3.52882z" fill="#000" fill-rule="evenodd"/></svg>

<svg width="20" height="20" viewBox="0 0 20 20" fill="none" xmlns="http://www.w3.org/2000/svg">
<path fill-rule="evenodd" clip-rule="evenodd" d="M10.9324 1.83094C10.5153 1.11788 9.4847 1.11788 9.06763 1.83094L0.149401 17.0785C-0.271764 17.7986 0.247568 18.704 1.08176 18.704H18.9182C19.7524 18.704 20.2718 17.7986 19.8506 17.0785L10.9324 1.83094ZM16.5644 16.2737L15.3391 14.1788H4.66094L3.43562 16.2737H16.5644ZM13.1064 10.3616L14.2966 12.3966H5.70334L6.8936 10.3616H13.1064ZM12.064 8.57934L10 5.05052L7.93601 8.57934H12.064Z" fill="black"/>
</svg>
